X: 18985
T: Inishowen
R: jig
M: 6/8
K: Bminor
|:Bdf Bdf|gfe fdB|Bdf fed|cee edc|Bde fed|gfe fdB|dff fed|cdc B2f:|
|:bff aff|gfe f2f|bag agf|efg f2f|bag agf|efg f2f|dff fed|cdc B3:|

